;FLAVOR:Marlin
;TIME:3170
;Filament used: 1.0172m
;Layer height: 0.16
;MINX:134.6
;MINY:130.343
;MINZ:0.16
;MAXX:165.4
;MAXY:169.657
;MAXZ:26.88
;Generated with Cura_SteamEngine master
M140 S60
M105
M190 S60
M104 S202
M105
M109 S202
M82 ;absolute extrusion mode
M201 X500.00 Y500.00 Z100.00 E5000.00 ;Setup machine max acceleration
M203 X500.00 Y500.00 Z10.00 E50.00 ;Setup machine max feedrate
M204 P500.00 R1000.00 T500.00 ;Setup Print/Retract/Travel acceleration
M205 X8.00 Y8.00 Z0.40 E5.00 ;Setup Jerk
M220 S100 ;Reset Feedrate
M221 S100 ;Reset Flowrate

G28 ;Home

G92 E0 ;Reset Extruder
G1 Z2.0 F3000 ;Move Z Axis up
G1 X10.1 Y20 Z0.28 F5000.0 ;Move to start position
G1 X10.1 Y200.0 Z0.28 F1500.0 E15 ;Draw the first line
G1 X10.4 Y200.0 Z0.28 F5000.0 ;Move to side a little
G1 X10.4 Y20 Z0.28 F1500.0 E30 ;Draw the second line
G92 E0 ;Reset Extruder
G1 Z2.0 F3000 ;Move Z Axis up

G92 E0
G92 E0
G1 F2700 E-5.2
;LAYER_COUNT:168
;LAYER:0
M107
G0 F6000 X141.18 Y132.713 Z0.16
;TYPE:SKIRT
G1 F2700 E0
G1 F1200 X141.767 Y132.174 E0.0159
G1 X142.406 Y131.696 E0.03183
G1 X143.089 Y131.285 E0.04774
G1 X143.81 Y130.944 E0.06365
G1 X144.561 Y130.678 E0.07955
G1 X145.335 Y130.487 E0.09546
G1 X146.124 Y130.376 E0.11136
G1 X146.843 Y130.343 E0.12573
G1 X153.251 Y130.343 E0.2536
G1 X154.047 Y130.383 E0.26951
G1 X154.835 Y130.502 E0.28541
G1 X155.608 Y130.7 E0.30134
G1 X156.356 Y130.975 E0.31724
G1 X157.074 Y131.322 E0.33315
G1 X157.753 Y131.74 E0.34907
G1 X158.386 Y132.224 E0.36497
G1 X158.968 Y132.769 E0.38088
G1 X159.493 Y133.369 E0.39679
G1 X159.955 Y134.019 E0.4127
G1 X160.349 Y134.712 E0.42861
G1 X160.559 Y135.163 E0.43854
G1 X161.056 Y136.323 E0.46373
G1 X161.199 Y136.643 E0.47072
G1 X161.488 Y137.386 E0.48663
G1 X161.701 Y138.155 E0.50255
G1 X161.836 Y138.94 E0.51845
G1 X161.893 Y139.892 E0.53748
G1 X161.893 Y139.991 E0.53946
G1 X162.468 Y140.431 E0.55391
G1 X162.954 Y140.879 E0.5671
G1 X163.071 Y140.996 E0.5704
G1 X163.606 Y141.587 E0.58631
G1 X164.079 Y142.229 E0.60222
G1 X164.485 Y142.915 E0.61813
G1 X164.821 Y143.638 E0.63404
G1 X165.082 Y144.391 E0.64994
G1 X165.267 Y145.167 E0.66586
G1 X165.373 Y145.957 E0.68177
G1 X165.4 Y146.617 E0.69495
G1 X165.4 Y153.383 E0.82997
G1 X165.36 Y154.179 E0.84588
G1 X165.241 Y154.967 E0.86178
G1 X165.043 Y155.74 E0.87771
G1 X164.768 Y156.488 E0.89361
G1 X164.421 Y157.206 E0.90952
G1 X164.003 Y157.885 E0.92544
G1 X163.519 Y158.518 E0.94134
G1 X163.071 Y159.004 E0.95453
G1 X162.954 Y159.121 E0.95783
G1 X162.363 Y159.656 E0.97374
G1 X161.802 Y160.069 E0.98764
G1 X161.811 Y160.337 E0.99299
G1 X161.758 Y161.132 E1.00889
G1 X161.625 Y161.918 E1.0248
G1 X161.415 Y162.687 E1.04071
G1 X161.252 Y163.137 E1.05026
G1 X160.656 Y164.639 E1.08251
G1 X160.325 Y165.365 E1.09843
G1 X159.923 Y166.053 E1.11433
G1 X159.454 Y166.698 E1.13025
G1 X158.923 Y167.293 E1.14616
G1 X158.335 Y167.831 E1.16207
G1 X157.696 Y168.308 E1.17798
G1 X157.013 Y168.719 E1.19389
G1 X156.292 Y169.059 E1.2098
G1 X155.54 Y169.325 E1.22571
G1 X154.766 Y169.514 E1.24161
G1 X153.976 Y169.625 E1.25753
G1 X153.266 Y169.657 E1.27172
G1 X146.842 Y169.657 E1.39991
G1 X146.046 Y169.617 E1.41582
G1 X145.258 Y169.498 E1.43172
G1 X144.485 Y169.3 E1.44765
G1 X143.737 Y169.025 E1.46355
G1 X143.019 Y168.678 E1.47947
G1 X142.34 Y168.26 E1.49538
G1 X141.707 Y167.776 E1.51128
G1 X141.125 Y167.231 E1.52719
G1 X140.6 Y166.631 E1.5431
G1 X140.138 Y165.981 E1.55902
G1 X139.744 Y165.288 E1.57492
G1 X139.421 Y164.559 E1.59084
G1 X139.173 Y163.801 E1.60675
G1 X139.002 Y163.023 E1.62265
G1 X138.909 Y162.231 E1.63856
G1 X138.897 Y161.434 E1.65447
G1 X138.949 Y160.818 E1.66681
G1 X138.821 Y160.582 E1.67216
G1 X138.751 Y160.414 E1.6758
G1 X138.165 Y160.053 E1.68953
G1 X137.532 Y159.569 E1.70543
G1 X137.046 Y159.121 E1.71862
G1 X136.929 Y159.004 E1.72192
G1 X136.394 Y158.413 E1.73783
G1 X135.921 Y157.771 E1.75375
G1 X135.515 Y157.085 E1.76965
G1 X135.179 Y156.362 E1.78557
G1 X134.918 Y155.609 E1.80147
G1 X134.733 Y154.833 E1.81739
G1 X134.627 Y154.043 E1.8333
G1 X134.6 Y153.383 E1.84648
G1 X134.6 Y146.617 E1.9815
G1 X134.64 Y145.821 E1.99741
G1 X134.759 Y145.033 E2.01331
G1 X134.957 Y144.26 E2.02923
G1 X135.232 Y143.512 E2.04514
G1 X135.579 Y142.794 E2.06105
G1 X135.997 Y142.115 E2.07696
G1 X136.481 Y141.482 E2.09287
G1 X136.929 Y140.996 E2.10606
G1 X137.046 Y140.879 E2.10936
G1 X137.637 Y140.344 E2.12527
G1 X138.279 Y139.871 E2.14118
G1 X138.293 Y139.863 E2.1415
G1 X138.299 Y139.839 E2.142
G1 X138.299 Y139.727 E2.14423
G1 X138.339 Y138.931 E2.16014
G1 X138.458 Y138.143 E2.17604
G1 X138.656 Y137.37 E2.19196
G1 X138.907 Y136.677 E2.20667
G1 X139.433 Y135.412 E2.23401
G1 X139.45 Y135.368 E2.23495
G1 X139.46 Y135.347 E2.23542
G1 X139.465 Y135.334 E2.2357
G1 X139.781 Y134.643 E2.25086
G1 X140.182 Y133.954 E2.26677
G1 X140.65 Y133.308 E2.28269
G1 X141.18 Y132.713 E2.29859
G0 F6000 X141.436 Y132.881
G1 F1200 X142.017 Y132.358 E2.31419
G1 X142.648 Y131.896 E2.32979
G1 X143.323 Y131.501 E2.3454
G1 X144.035 Y131.177 E2.36101
G1 X144.776 Y130.928 E2.37661
G1 X145.539 Y130.755 E2.39223
G1 X146.315 Y130.661 E2.40782
G1 X146.843 Y130.643 E2.41837
G1 X153.251 Y130.643 E2.54625
G1 X154.032 Y130.683 E2.56185
G1 X154.805 Y130.802 E2.57746
G1 X155.562 Y131 E2.59308
G1 X156.294 Y131.274 E2.60867
G1 X156.995 Y131.622 E2.62429
G1 X157.656 Y132.039 E2.63989
G1 X158.272 Y132.521 E2.6555
G1 X158.835 Y133.064 E2.67111
G1 X159.339 Y133.661 E2.6867
G1 X159.781 Y134.307 E2.70232
G1 X160.283 Y135.282 E2.7242
G1 X160.775 Y136.432 E2.74916
G1 X160.925 Y136.766 E2.75647
G1 X161.208 Y137.495 E2.77208
G1 X161.415 Y138.249 E2.78768
G1 X161.543 Y139.021 E2.8033
G1 X161.593 Y139.892 E2.82071
G1 X161.593 Y140.155 E2.82596
G1 X161.738 Y140.246 E2.82937
G1 X162.354 Y140.728 E2.84498
G1 X162.742 Y141.091 E2.85558
G1 X162.859 Y141.208 E2.85889
G1 X163.383 Y141.788 E2.87448
G1 X163.845 Y142.419 E2.89009
G1 X164.241 Y143.094 E2.90571
G1 X164.565 Y143.806 E2.92132
G1 X164.815 Y144.547 E2.93693
G1 X164.987 Y145.309 E2.95251
G1 X165.082 Y146.086 E2.96814
G1 X165.1 Y146.617 E2.97874
G1 X165.1 Y153.383 E3.11376
G1 X165.06 Y154.164 E3.12937
G1 X164.941 Y154.937 E3.14498
G1 X164.743 Y155.694 E3.16059
G1 X164.469 Y156.426 E3.17619
G1 X164.121 Y157.127 E3.19181
G1 X163.704 Y157.788 E3.2074
G1 X163.222 Y158.404 E3.22301
G1 X162.859 Y158.792 E3.23362
G1 X162.742 Y158.909 E3.23692
G1 X162.162 Y159.433 E3.25252
G1 X161.531 Y159.895 E3.26812
G1 X161.498 Y159.915 E3.26889
G1 X161.508 Y160.451 E3.27959
G1 X161.443 Y161.23 E3.29519
G1 X161.299 Y161.999 E3.3108
G1 X160.973 Y163.027 E3.33233
G1 X160.377 Y164.529 E3.36457
G1 X160.051 Y165.24 E3.38018
G1 X159.655 Y165.914 E3.39578
G1 X159.192 Y166.544 E3.41138
G1 X158.668 Y167.124 E3.42698
G1 X158.086 Y167.647 E3.4426
G1 X157.455 Y168.108 E3.45819
G1 X156.779 Y168.503 E3.47382
G1 X156.067 Y168.826 E3.48942
G1 X155.326 Y169.075 E3.50502
G1 X154.563 Y169.246 E3.52062
G1 X153.786 Y169.339 E3.53624
G1 X153.266 Y169.357 E3.54662
G1 X146.842 Y169.357 E3.67482
G1 X146.061 Y169.317 E3.69043
G1 X145.288 Y169.198 E3.70604
G1 X144.531 Y169 E3.72165
G1 X143.799 Y168.726 E3.73725
G1 X143.098 Y168.378 E3.75287
G1 X142.437 Y167.961 E3.76846
G1 X141.821 Y167.479 E3.78407
G1 X141.258 Y166.936 E3.79968
G1 X140.754 Y166.339 E3.81527
G1 X140.312 Y165.693 E3.83089
G1 X139.94 Y165.005 E3.8465
G1 X139.639 Y164.284 E3.86209
G1 X139.414 Y163.535 E3.8777
G1 X139.266 Y162.767 E3.89331
G1 X139.197 Y161.988 E3.90892
G1 X139.208 Y161.206 E3.92452
G1 X139.26 Y160.763 E3.93342
G1 X139.073 Y160.412 E3.94136
G1 X138.988 Y160.203 E3.94586
G1 X138.923 Y160.171 E3.94731
G1 X138.262 Y159.754 E3.96291
G1 X137.646 Y159.272 E3.97851
G1 X137.258 Y158.909 E3.98912
G1 X137.141 Y158.792 E3.99242
G1 X136.617 Y158.212 E4.00802
G1 X136.155 Y157.581 E4.02363
G1 X135.759 Y156.906 E4.03924
G1 X135.435 Y156.194 E4.05485
G1 X135.185 Y155.453 E4.07046
G1 X135.013 Y154.691 E4.08605
G1 X134.918 Y153.914 E4.10167
G1 X134.9 Y153.383 E4.11227
G1 X134.9 Y146.617 E4.2473
G1 X134.94 Y145.836 E4.2629
G1 X135.059 Y145.063 E4.27851
G1 X135.257 Y144.306 E4.29412
G1 X135.531 Y143.574 E4.30972
G1 X135.879 Y142.873 E4.32534
G1 X136.296 Y142.212 E4.34094
G1 X136.778 Y141.596 E4.35655
G1 X137.141 Y141.208 E4.36715
G1 X137.258 Y141.091 E4.37045
G1 X137.838 Y140.567 E4.38605
G1 X138.469 Y140.105 E4.40166
G1 X138.552 Y140.056 E4.40358
G1 X138.599 Y139.877 E4.40727
G1 X138.599 Y139.727 E4.41027
G1 X138.639 Y138.946 E4.42587
G1 X138.758 Y138.173 E4.44148
G1 X138.956 Y137.416 E4.4571
G1 X139.185 Y136.792 E4.47036
G1 X139.698 Y135.556 E4.49707
G1 X139.729 Y135.479 E4.49872
G1 X140.054 Y134.767 E4.51434
G1 X140.449 Y134.093 E4.52993
G1 X140.912 Y133.462 E4.54555
G1 X141.436 Y132.881 E4.56116
G0 F6000 X141.691 Y133.051
G1 F1200 X142.265 Y132.543 E4.57646
G1 X142.889 Y132.097 E4.59177
G1 X143.556 Y131.719 E4.60707
G1 X144.258 Y131.413 E4.62235
G1 X144.989 Y131.181 E4.63765
G1 X145.74 Y131.026 E4.65296
G1 X146.843 Y130.943 E4.67503
G1 X153.251 Y130.943 E4.80291
G1 X154.017 Y130.983 E4.81822
G1 X154.774 Y131.102 E4.83351
G1 X155.514 Y131.3 E4.8488
G1 X156.23 Y131.574 E4.86409
G1 X156.914 Y131.921 E4.8794
G1 X157.558 Y132.337 E4.8947
G1 X158.155 Y132.818 E4.91
G1 X158.698 Y133.358 E4.92528
G1 X159.182 Y133.952 E4.94057
G1 X159.602 Y134.594 E4.95588
G1 X160.008 Y135.4 E4.97389
G1 X160.528 Y136.613 E5.00023
G1 X160.651 Y136.889 E5.00626
G1 X160.928 Y137.604 E5.02156
G1 X161.128 Y138.343 E5.03684
G1 X161.25 Y139.1 E5.05214
G1 X161.293 Y139.892 E5.06797
G1 X161.293 Y140.32 E5.07651
G1 X161.64 Y140.544 E5.08475
G1 X162.237 Y141.025 E5.10005
G1 X162.53 Y141.303 E5.10811
G1 X162.647 Y141.42 E5.11142
G1 X163.16 Y141.989 E5.1267
G1 X163.611 Y142.609 E5.142
G1 X163.995 Y143.273 E5.15731
G1 X164.308 Y143.973 E5.17261
G1 X164.546 Y144.701 E5.1879
G1 X164.707 Y145.451 E5.20321
G1 X164.789 Y146.213 E5.2185
G1 X164.8 Y146.617 E5.22657
G1 X164.8 Y153.383 E5.36159
G1 X164.76 Y154.149 E5.3769
G1 X164.641 Y154.906 E5.39219
G1 X164.443 Y155.646 E5.40747
G1 X164.169 Y156.362 E5.42277
G1 X163.822 Y157.046 E5.43808
G1 X163.406 Y157.69 E5.45338
G1 X162.925 Y158.287 E5.46868
G1 X162.647 Y158.58 E5.47674
G1 X162.53 Y158.697 E5.48004
G1 X161.961 Y159.21 E5.49533
G1 X161.341 Y159.661 E5.51063
G1 X161.204 Y159.74 E5.51379
G1 X161.198 Y159.764 E5.51428
G1 X161.201 Y159.796 E5.51492
G1 X161.203 Y160.563 E5.53023
G1 X161.126 Y161.325 E5.54551
G1 X160.97 Y162.076 E5.56082
G1 X160.694 Y162.916 E5.57846
G1 X160.098 Y164.418 E5.61071
G1 X159.778 Y165.115 E5.62602
G1 X159.388 Y165.774 E5.6413
G1 X158.931 Y166.39 E5.6566
G1 X158.413 Y166.954 E5.67189
G1 X157.838 Y167.462 E5.6872
G1 X157.214 Y167.907 E5.70249
G1 X156.547 Y168.284 E5.71778
G1 X155.844 Y168.59 E5.73308
G1 X155.113 Y168.821 E5.74838
G1 X154.362 Y168.975 E5.76368
G1 X153.266 Y169.057 E5.78561
G1 X146.842 Y169.057 E5.91381
G1 X146.076 Y169.017 E5.92912
G1 X145.319 Y168.898 E5.94441
G1 X144.579 Y168.7 E5.9597
G1 X143.863 Y168.426 E5.975
G1 X143.179 Y168.079 E5.9903
G1 X142.535 Y167.663 E6.0056
G1 X141.938 Y167.182 E6.0209
G1 X141.395 Y166.642 E6.03618
G1 X140.911 Y166.048 E6.05148
G1 X140.491 Y165.406 E6.06679
G1 X140.14 Y164.725 E6.08207
G1 X139.862 Y164.01 E6.09738
G1 X139.66 Y163.271 E6.11267
G1 X139.536 Y162.514 E6.12798
G1 X139.492 Y161.749 E6.14327
G1 X139.528 Y160.983 E6.15857
G1 X139.57 Y160.709 E6.16411
G1 X139.325 Y160.244 E6.1746
G1 X139.22 Y159.982 E6.18023
G1 X139.004 Y159.872 E6.18507
G1 X138.36 Y159.456 E6.20037
G1 X137.763 Y158.975 E6.21566
G1 X137.47 Y158.697 E6.22373
G1 X137.353 Y158.58 E6.22703
G1 X136.84 Y158.011 E6.24232
G1 X136.389 Y157.391 E6.25762
G1 X136.005 Y156.727 E6.27292
G1 X135.692 Y156.027 E6.28822
G1 X135.454 Y155.299 E6.30351
G1 X135.293 Y154.549 E6.31882
G1 X135.211 Y153.787 E6.33411
G1 X135.2 Y153.383 E6.34218
G1 X135.2 Y146.617 E6.4772
G1 X135.24 Y145.851 E6.49251
G1 X135.359 Y145.094 E6.5078
G1 X135.557 Y144.354 E6.52309
G1 X135.831 Y143.638 E6.53839
G1 X136.178 Y142.954 E6.55369
G1 X136.594 Y142.31 E6.56899
G1 X137.075 Y141.713 E6.58429
G1 X137.353 Y141.42 E6.59235
G1 X137.47 Y141.303 E6.59565
G1 X138.039 Y140.79 E6.61094
G1 X138.659 Y140.339 E6.62624
G1 X138.809 Y140.252 E6.6297
G1 X138.899 Y139.916 E6.63664
G1 X138.899 Y139.727 E6.64042
G1 X138.939 Y138.961 E6.65572
G1 X139.058 Y138.204 E6.67102
G1 X139.256 Y137.464 E6.6863
G1 X139.462 Y136.907 E6.69815
G1 X139.976 Y135.67 E6.72489
G1 X140.008 Y135.589 E6.72662
G1 X140.327 Y134.892 E6.74192
G1 X140.717 Y134.232 E6.75722
G1 X141.173 Y133.616 E6.77251
G1 X141.691 Y133.051 E6.78781
G0 F6000 X141.946 Y133.222
G1 F1200 X142.513 Y132.73 E6.80279
G1 X143.129 Y132.301 E6.81777
G1 X143.787 Y131.94 E6.83275
G1 X144.48 Y131.651 E6.84773
G1 X145.2 Y131.437 E6.86272
G1 X145.938 Y131.301 E6.8777
G1 X146.843 Y131.243 E6.8958
G1 X153.251 Y131.243 E7.02367
G1 X154.001 Y131.283 E7.03866
G1 X154.742 Y131.402 E7.05364
G1 X155.466 Y131.6 E7.06862
G1 X156.165 Y131.874 E7.0836
G1 X156.831 Y132.22 E7.09858
G1 X157.457 Y132.635 E7.11357
G1 X158.035 Y133.114 E7.12855
G1 X158.558 Y133.652 E7.14352
G1 X159.022 Y134.243 E7.15852
G1 X159.42 Y134.88 E7.1735
G1 X159.732 Y135.518 E7.18768
G1 X160.225 Y136.669 E7.21267
G1 X160.378 Y137.011 E7.22014
G1 X160.647 Y137.712 E7.23513
G1 X160.841 Y138.437 E7.2501
G1 X160.957 Y139.179 E7.26509
G1 X160.993 Y139.892 E7.27934
G1 X160.993 Y140.48 E7.29107
G1 X161.539 Y140.842 E7.30414
G1 X162.318 Y141.515 E7.32469
G1 X162.435 Y141.632 E7.32799
G1 X162.937 Y142.19 E7.34297
G1 X163.377 Y142.799 E7.35796
G1 X163.749 Y143.451 E7.37294
G1 X164.05 Y144.138 E7.38791
G1 X164.276 Y144.854 E7.40289
G1 X164.425 Y145.59 E7.41788
G1 X164.5 Y146.617 E7.43843
G1 X164.5 Y153.383 E7.57345
G1 X164.46 Y154.133 E7.58844
G1 X164.341 Y154.874 E7.60342
G1 X164.143 Y155.598 E7.6184
G1 X163.869 Y156.297 E7.63338
G1 X163.523 Y156.963 E7.64836
G1 X163.108 Y157.589 E7.66334
G1 X162.435 Y158.368 E7.68389
G1 X162.318 Y158.485 E7.68719
G1 X161.76 Y158.987 E7.70217
G1 X161.151 Y159.427 E7.71716
G1 X160.935 Y159.55 E7.72212
G1 X160.92 Y159.648 E7.7241
G1 X160.891 Y159.76 E7.72641
G1 X160.906 Y159.921 E7.72964
G1 X160.897 Y160.672 E7.74462
G1 X160.807 Y161.417 E7.7596
G1 X160.639 Y162.149 E7.77459
G1 X160.415 Y162.805 E7.78842
G1 X159.819 Y164.307 E7.82067
G1 X159.505 Y164.989 E7.83565
G1 X159.121 Y165.634 E7.85063
G1 X158.67 Y166.234 E7.86561
G1 X158.158 Y166.783 E7.88059
G1 X157.59 Y167.275 E7.89559
G1 X156.974 Y167.703 E7.91056
G1 X156.315 Y168.063 E7.92554
G1 X155.622 Y168.352 E7.94053
G1 X154.902 Y168.565 E7.95551
G1 X154.164 Y168.7 E7.97048
G1 X153.266 Y168.757 E7.98844
G1 X146.842 Y168.757 E8.11664
G1 X146.092 Y168.717 E8.13163
G1 X145.351 Y168.598 E8.1466
G1 X144.627 Y168.4 E8.16158
G1 X143.928 Y168.126 E8.17656
G1 X143.262 Y167.78 E8.19154
G1 X142.636 Y167.365 E8.20653
G1 X142.058 Y166.886 E8.22151
G1 X141.535 Y166.348 E8.23648
G1 X141.071 Y165.757 E8.25148
G1 X140.673 Y165.12 E8.26647
G1 X140.345 Y164.445 E8.28144
G1 X140.091 Y163.739 E8.29642
G1 X139.913 Y163.009 E8.31141
G1 X139.814 Y162.265 E8.32639
G1 X139.795 Y161.515 E8.34136
G1 X139.855 Y160.767 E8.35634
G1 X139.877 Y160.651 E8.35869
G1 X139.578 Y160.076 E8.37163
G1 X139.457 Y159.765 E8.37829
G1 X139.087 Y159.573 E8.3866
G1 X138.461 Y159.158 E8.40159
G1 X137.682 Y158.485 E8.42214
G1 X137.565 Y158.368 E8.42544
G1 X137.063 Y157.81 E8.44042
G1 X136.623 Y157.201 E8.45541
G1 X136.251 Y156.549 E8.47039
G1 X135.95 Y155.862 E8.48536
G1 X135.724 Y155.146 E8.50034
G1 X135.575 Y154.41 E8.51533
G1 X135.5 Y153.383 E8.53588
G1 X135.5 Y146.617 E8.6709
G1 X135.54 Y145.867 E8.68589
G1 X135.659 Y145.126 E8.70087
G1 X135.857 Y144.402 E8.71584
G1 X136.131 Y143.703 E8.73083
G1 X136.477 Y143.037 E8.7458
G1 X136.892 Y142.411 E8.76079
G1 X137.565 Y141.632 E8.78134
G1 X137.682 Y141.515 E8.78464
G1 X138.24 Y141.013 E8.79962
G1 X138.849 Y140.573 E8.81461
G1 X139.084 Y140.439 E8.82001
G1 X139.109 Y140.284 E8.82314
G1 X139.199 Y139.955 E8.82995
G1 X139.199 Y139.727 E8.8345
G1 X139.239 Y138.977 E8.84949
G1 X139.358 Y138.236 E8.86446
G1 X139.556 Y137.512 E8.87944
G1 X139.739 Y137.022 E8.88988
G1 X140.262 Y135.764 E8.91707
G1 X140.287 Y135.7 E8.91844
G1 X140.6 Y135.017 E8.93343
G1 X140.984 Y134.372 E8.94841
